!!!!SEGMENT: pl-wtm--670-sp-3678--001-015_schumann-robert--piosenki-dla-mlodocianego-wieku-piotr-maszynski-15-gwiazdka.krn
!!!cenid: 18xx:4767
!!!COM: Schumann, Robert
!!!COM-rismID: pe131206
!!!CDT: 1810/06/08-1856/07/29
!!!CNT: German
!!!GTL: Piosenki dla młodocianego wieku (Piotr Maszyński)
!!!OTL: 15. Gwiazdka
!!!OMV: 015
!!!PDT: 1871
!!!AGN: Secular; Song; Children
!!!YEC: Copyright 2022 Narodowy Instytut Fryderyka Chopina (https://polishscores.org)
!!!YEM: License CC-BY-4.0 (https://creativecommons.org/licenses/by/4.0)
!!!SMS-siglum: PL-Wtm
!!!SMS-shelfmark: 670 śp 3678
!!!SMS-variant:
!!!SMS-altvar:
!!!SMS-shelfwork: 001-015 G
!!!NIFC-rismSourceID: 1001185478
!!!NIFC-rismChildID: 1001185478
!!!NIFC-islandoraID: pl-wtm:57754
!!!URL-pdf-islandora: https://repozytorium.nifc.pl/islandora/object/pl-wtm%3A57754/datastream/PDF/view
!!!URL-scan: https://polish.musicsources.pl/pl/lokalizacje/galeria/druki-muzyczne/19483/11 @EN{Scan on Polish Music Sources Website} @PL{Skany w portalu Dziedzictwo Muzyki Polskiej w otwartym dostępie}
!!!IIIF:
!!!ONB-nifc:
!!!AIN: 1 piano 1 vox
!!!key: G
!!!OMD: Lento.
**kern	**fing	**kern	**fing	**dynam	**kern	**text	**text	**text	**text	**dynam
*part2	*part2	*part2	*part2	*part2	*part1	*part1	*part1	*part1	*part1	*part1
*staff3	*staff3	*staff2	*staff2	*staff2/3	*staff1	*staff1	*staff1	*staff1	*staff1	*staff1
*I"Fortepian.	*	*I"Fortepian.	*	*	*I"Śpiew.	*	*	*	*	*
*I'pf	*	*I'pf	*	*	*I'V	*	*	*	*	*
*Ipiano	*	*Ipiano	*	*	*Ivox	*	*	*	*	*
*ICklav	*	*ICklav	*	*	*ICvox	*	*	*	*	*
*IGacmp	*	*IGacmp	*	*	*IGsolo	*	*	*	*	*
*>[A,A,A,A]	*>[A,A,A,A]	*>[A,A,A,A]	*>[A,A,A,A]	*>[A,A,A,A]	*>[A,A,A,A]	*>[A,A,A,A]	*>[A,A,A,A]	*>[A,A,A,A]	*>[A,A,A,A]	*>[A,A,A,A]
*>A	*>A	*>A	*>A	*>A	*>A	*>A	*>A	*>A	*>A	*>A
*clefF4	*	*clefG2	*	*	*clefG2	*	*	*	*	*
*k[f#]	*	*k[f#]	*	*	*k[f#]	*	*	*	*	*
*G:	*	*G:	*	*	*G:	*	*	*	*	*
*M2/4	*	*M2/4	*	*	*M2/4	*	*	*	*	*
=	=	=	=	=	=	=	=	=	=	=
*	*	*	*	*	*	*v :1	*v :2	*v :3	*v :4	*
8r	.	(>8g/	.	p	8g/	O	Jak	W wie-	I	p
=1	=1	=1	=1	=1	=1	=1	=1	=1	=1	=1
(4GG/	.	4b 4g 4d/	.	.	4b\	gwiaz-	i-	-czor-	rad-	.
!	!	!LO:TX:t=P:problem=palcowanie obok nut	!	!	!	!	!	!	!	!
8AA/L	.	8aL 8f# 8c/	1 3 5	.	8a/	-dko	-skra	-nej	-bym	.
8BB/J)	.	8gJ 8d/)	4	.	8g/	co	z pło-	też	do	.
=2	=2	=2	=2	=2	=2	=2	=2	=2	=2	=2
2C/	.	2e 2c/	1 2	.	4e/	w gó-	-mie-	do-	cie-	.
.	.	.	.	.	8e/	-rze	-nia	-bie,	-bie	.
.	.	.	.	.	8e/	u-	na	gdy	w prze-	.
!!LO:LB:g=original
=3	=3	=3	=3	=3	=3	=3	=3	=3	=3	=3
4AA/	.	(>4cc 4a 4d/	.	.	4cc\	-śmie-	tle	pa-	-stwo-	.
8C/L	.	8aL 8e/	3	.	8a/	-chasz	mlecz-	-dnie	-rza	.
8C/J	.	8a#XJ 8e/)	4	.	8a#X/	się	-nych	już	się	.
=4	=4	=4	=4	=4	=4	=4	=4	=4	=4	=4
2BB/	.	2b 2f# 2d#X/	.	.	4.b\	nam,	dróg	mrok,	wzbić,	.
.	.	.	.	.	8b\	na	mi-	ja	za-	.
=5	=5	=5	=5	=5	=5	=5	=5	=5	=5	=5
*	*	*^	*	*	*	*	*	*	*	*
2dn 2G#X 2E\	.	(4.b/	2e\	.	.	4b\	ciem-	-go-	naj-	-wi-	<
.	.	.	.	.	.	8g#X/	-nym	-cesz	-przód	-snąć	.
.	.	8e/)	.	.	.	8e/	la-	śród	ku	na	[
*	*	*v	*v	*	*	*	*	*	*	*	*
!!LO:LB:g=original
=6	=6	=6	=6	=6	=6	=6	=6	=6	=6	=6
*	*below	*	*	*	*	*	*	*	*	*
2c 2A\	1 3	2ee 2e/	.	>	4ee\	-zu-	cie-	to-	nie-	>
.	.	.	.	]	8a/	-rze	-nia	-bie	-bie	.
.	.	.	.	.	8a/	ja	ja-	kie-	i	]
=7	=7	=7	=7	=7	=7	=7	=7	=7	=7	=7
4A\	.	(4cc 4f# 4d/	.	.	4cc\	je-	-sno-	-ru-	z to-	.
8D\L	.	8aL 8f# 8c/	.	.	8a/	-dną	-ścią	-ję	-bą	.
8D\J	.	8bJ 8f# 8d/)	.	.	8b\	cię	twych	mój	tam	.
=8	=8	=8	=8	=8	=8	=8	=8	=8	=8	=8
!LO:TX:b:t=P:problem=palcowanie obok nut	!	!	!	!	!	!	!	!	!	!
4.D 4.GG/	1 5	4.g 4.d 4.B/	.	.	4.g/	znam.	smug.	wzrok.	żyć.	.
==	==	==	==	==	==	==	==	==	==	==
*-	*-	*-	*-	*-	*-	*-	*-	*-	*-	*-
!!!system-decoration: s1{(s2,s3)}
!!!RDF**kern: > = above
!!!ENC: Andrzej Gręziak
!!!END: 2025-03-26
!!!EED: Marta Lawrence
!!!EEV: 2025-03-31
